X:1
T:I waited meekly for the Lord
T:I waited meekly for the Lord (Stephen Jarvis)
C:Stephen Jarvis
Z:p10, Twelve Psalm Tunes,
Z:and Eight Anthems,
Z:in Score, London: [1821]
%%score [ 1 2 3 ( 4 5 ) ]
L:1/8
M:2/2
K:Eb
V:1 treble nm="Soprano" snm="S."
V:2 treble nm="Alto" snm="A."
V:3 treble-8 transpose=-12 nm="Tenor" snm="T."
V:4 bass nm="Bass" snm="B."
V:5 bass 
V:1
 E2 | G6 A2 | B6 c2 | F4 (G2 A2) | G6 B2 | e4 c4 | (d2 f2) B4 | (B2 d2) (c2 =A2) | B6 z2 | z8 | %10
w: I’ve|learnt, that|thou hast|not de- *|sir’d Off-|’rings and|sac- * ri-|fice _ a- *|lone;||
w: I|wai- ted|meek- ly|for the _|Lord, Till|he vouch-|saf’d _ a|kind _ re- *|ply;||
w: Who|can the|wond- rous|works re- *|count Which|thou, O|God, _ for|us _ hath _|wrought!||
 z8 | z8 | z8 | z2 G2 G3 G | G4 c4 | c4 =B4 | c6 d2 | e6 f2 | g6 f2 | (edcB dc)(BA) | %20
w: |||For man’s trans-|gres- sion|to a-|tone, Nor|blood of|guilt- less|beasts _ _ _ _ _ re- *|
w: |||And heard from|heav’n my|hum- ble|cry, Who|did his|gra- cious|ear _ _ _ _ _ af- *|
w: |||The pow’r of|num- bers,|speech and|thought, The|trea- sures|of thy|love _ _ _ _ _ sur- *|
 (G4 !fermata!F2) E2 | E6 F2 | G2 F2 G2 (GA) | B8 | z4 z2 E2 | E6 E2 | A4 G2 G2 | c6 B2 | %28
w: quir’d _ For|man’s trans-|gres- sion to a- *|tone,|For|man’s trans-|gres- sion, for|man’s trans-|
w: ford, _ And|heard from|heav’n my hum- ble _|cry,|And|heard from|hea- ven, and|heard from|
w: mount _ The|pow’r of|num- bers, speech, and _|thought,|The|pow’r of|num- bers, the|pow’r of|
 c2 d2 e4- | e4 d4 | e8 |] %31
w: gres- sion to|_ a-|tone.|
w: heav’n my hum-|* ble|cry.|
w: num- bers, speech,|_ and|thought.|
V:2
 E2 | E6 F2 | G6 E2 | E4 D4 | E6 F2 | E4 E4 | D4 F4 | F6 F2 | F6 F2 | G6 F2 | E6 (FG) | %11
w: I’ve|learnt, that|thou hast|not de-|sir’d Off-|’rings and|sac- ri-|fice a-|lone; Nor|blood of|guilt- less _|
w: I|wai- ted|meek- ly|for the|Lord, Till|he vouch-|saf’d a|kind re-|ply; Who|did his|gra- cious _|
w: Who|can the|wond- rous|works re-|count Which|thou, O|God, for|us hath|wrought! The|trea- sures|of thy _|
 (A2 F2 AG)(FE) | (E4 D2) D2 | (E3 D EG)(FE) | D4 C4 | G4 G4 | G6 z2 | z4 z2 B2 | B6 B2 | %19
w: beasts _ _ _ re- *|quir’d _ For|man’s _ _ _ trans- *|gres- sion|to a-|tone,|Nor|blood of|
w: ear _ _ _ af- *|ford, _ And|heard _ _ _ from _|heav’n my|hum- ble|cry,|Who|did his|
w: love _ _ _ sur- *|mount _ The|pow’r _ _ _ of _|num- bers,|speech and|thought,|The|trea- sures|
 B2 G2 E2 F2 | (E4 !fermata!D2) E2 | E6 D2 | E2 B,2 E2 (EF) | G8 | z8 | z8 | z4 z2 E2 | E6 E2 | %28
w: guilt- less beasts re-|quir’d _ For|man’s trans-|gres- sion to a- *|tone,|||For|man’s trans-|
w: gra- cious ear af-|ford, _ And|heard from|heav’n my hum- ble _|cry,|||And|heard from|
w: of thy love sur-|mount _ The|pow’r of|num- bers, speech, and _|thought,|||The|pow’r of|
 A6 G2 | F6 F2 | G8 |] %31
w: gres- sion|to a-|tone.|
w: heav’n my|hum- ble|cry.|
w: num- bers,|speech, and|thought.|
V:3
 G2 | B6 d2 | e6 c2 | B4 B4 | B6 B2 | (B2 =A4) A2 | B4 B4 | (d2 f2) (e2 c2) | d6 B2 | e6 d2 | %10
w: I’ve|learnt, that|thou hast|not de-|sir’d Off-|’rings _ and|sac- ri-|fice _ a- *|lone; Nor|blood of|
w: I|wai- ted|meek- ly|for the|Lord, Till|he _ vouch-|saf’d a|kind _ re- *|ply; Who|did his|
w: Who|can the|wond- rous|works re-|count Which|thou, _ O|God, for|us _ hath _|wrought! The|trea- sures|
 c6 (de) | (f2 d2 fe)(dc) | (c4 =B2) B2 | (c3 =B ce)(dc) | =B4 c4 | (cd e2) d4 | c6 z2 | z4 z2 d2 | %18
w: guilt- less _|beasts _ _ _ re- *|quir’d _ For|man’s _ _ _ trans- *|gres- sion|to _ _ a-|tone,|Nor|
w: gra- cious _|ear _ _ _ af- *|ford, _ And|heard _ _ _ from _|heav’n my|hum- * * ble|cry,|Who|
w: of thy _|love _ _ _ sur- *|mount _ The|pow’r _ _ _ of _|num- bers,|speech _ _ and|thought,|The|
 e6 d2 | e2 e2 c2 c2 | !fermata!B6 z2 | z8 | z4 z2 E2 | E6 F2 | G2 F2 G2 (GA) | B6 B2 | e6 e2 | %27
w: blood of|guilt- less beasts re-|quir’d||For|man’s trans-|gres- sion to a- *|tone, For|man’s trans-|
w: did his|gra- cious ear af-|ford,||And|heard from|heav’n my hum- ble _|cry, And|heard from|
w: trea- sures|of thy love sur-|mount||The|pow’r of|num- bers, speech, and _|thought, The|pow’r of|
 c2 A2 e2 B2 | A2 F2 B4- | B4 B4 | B8 |] %31
w: gres- sion, man’s trans-|gres- sion to|_ a-|tone.|
w: heav’n, and heard from|heav’n my hum-|* ble|cry.|
w: num- bers, pow’r of|num- bers, speech,|_ and|thought.|
V:4
 E,2 | E,6 E,2 | E,6 A,2 | B,4 B,,4 | E,6 D,2 | C,4 C4 | B,4 D,4 | F,6 F,2 | B,,6 z2 | %9
w: I’ve|learnt, that|thou hast|not de-|sir’d Off-|’rings and|sac- ri-|fice a-|lone;|
w: I|wai- ted|meek- ly|for the|Lord, Till|he vouch-|saf’d a|kind re-|ply;|
w: Who|can the|wond- rous|works re-|count Which|thou, O|God, for|us hath|wrought!|
"^[Inst.]" E,6 (F,G,) | A,6 G,2 | F,6 F,2 | G,6 G,,2 | C,6 C,2 | G,4 A,4 | G,4 G,,4 | C,6 z2 | %17
w: |||* For|man’s trans-|gres- sion|to a-|tone,|
w: |||* And|heard from|heav’n my|hum- ble|cry,|
w: |||* The|pow’r of|num- bers,|speech and|thought,|
 z4 z2 B,,2 | E,6 F,2 | G,2 E,2 A,2 F,2 | !fermata!B,6 z2 |"^[Inst.]" z8 | z4 z2 E,2 | E,6 D,2 | %24
w: Nor|blood of|guilt- less beasts re-|quir’d||For|man’s trans-|
w: Who|did his|gra- cious ear af-|ford,||And|heard from|
w: The|trea- sures|of thy love sur-|mount||The|pow’r of|
"^Original order of staves is Counter - Tenor - Treble - Bass: the counter part is notated in the source in the treble clef, anoctave above sounding pitch. The vocal bass part is figured in the source: this figuring has been omitted from the presentedition. The first verse only of the text is given in the source: subsequent verses have been added editorially, on the basisof the title 'Psalm 40 Verses 1 5 6 7/8' in the source. The following notes are notated as small grace notes in the source,but have been given as full-size notes in the present edition: bar 6, beat 1, treble D; bar 15, beat 1, tenor C and D." E,2 B,,2 E,2 (E,F,) | %25
w: gres- sion to a- *|
w: heav’n my hum- ble _|
w: num- bers, speech, and _|
 G,6 G,2 | C6 B,2 | A,6 G,2 | F,4 E,4 | B,4 B,,4 | E,8 |] %31
w: tone, For|man’s, for|man’s trans-|gres- sion|to a-|tone.|
w: cry, And|heard, and|heard from|heav’n my|hum- ble|cry.|
w: thought, The|pow’r, the|pow’r of|num- bers,|speech, and|thought.|
V:5
 x2 | x8 | x8 | x8 | x8 | x8 | x8 | x8 | x8 | x8 | x8 | x8 | x8 | x8 | x8 | x8 | x8 | x8 | x8 | %19
 x8 | x8 | E,,8- | E,,8- | E,,8- | E,,8 | x8 | x8 | x8 | x8 | x8 | x8 |] %31

